public/svgs/engagement/publications.svg

<svg width="1em" height="1em" viewBox="0 0 22 30" fill="current" xmlns="http://www.w3.org/2000/svg">
<path d="M16.1167 15.1595C17.057 14.5368 17.9061 13.7764 18.7959 13.0783C19.31 12.6751 19.8438 12.2953 20.3384 11.8693C21.0457 11.2603 21.3235 10.3955 21.5867 9.55164C21.9615 8.34908 22.096 7.11494 21.9297 5.8484C21.7847 4.74302 21.7513 3.62144 21.5802 2.52092C21.4523 1.69816 21.185 0.897263 20.9576 0C20.8346 0.91022 20.7645 1.7176 20.6105 2.50877C20.3115 4.04335 19.7085 5.43217 18.5498 6.54646C18.1261 6.95379 17.7594 7.42023 17.3756 7.86725C17.0269 8.27296 16.6895 8.69001 16.3473 9.10139C16.3253 9.09086 16.3033 9.07952 16.2813 9.069C16.4329 8.62523 16.5836 8.18064 16.7352 7.73687C14.9295 9.47876 12.9413 10.9413 10.9824 12.4872C9.0594 10.8862 7.16164 9.30708 5.27856 7.74011C5.41056 8.15959 5.55723 8.62441 5.71938 9.13864C5.62568 9.06009 5.5613 9.01798 5.51241 8.96372C4.9078 8.2843 4.29831 7.61054 3.70592 6.92058C3.27895 6.42417 2.85034 5.92534 2.46981 5.39411C1.84728 4.52438 1.62564 3.49269 1.41704 2.47314C1.25897 1.70221 1.18807 0.914268 1.06992 0.0704526C0.903696 0.668898 0.696728 1.22038 0.603836 1.79048C0.405831 3.00599 0.266494 4.23123 0.102712 5.45322C-0.0635148 6.69627 -0.0431435 7.93608 0.276273 9.14998C0.532946 10.1242 0.828731 11.0984 1.62238 11.8094C1.8595 12.0215 2.12351 12.2046 2.37529 12.4005C3.47858 13.2589 4.59083 14.1068 5.68271 14.9798C6.19932 15.3936 6.79578 15.7782 7.14616 16.3127C7.70188 17.1589 8.08567 18.1177 8.53464 19.0328C8.64791 19.2644 8.72939 19.5114 8.82554 19.7511C8.42627 19.4644 8.10522 19.1381 7.75566 18.8441C6.87238 18.0999 5.95569 17.3938 5.09522 16.6253C4.63402 16.2139 4.28038 15.6851 3.842 15.2446C3.47532 14.8769 3.05976 14.557 2.65967 14.2226C2.25551 13.8841 1.8432 13.5545 1.38934 13.1836C2.47796 14.9733 3.53236 16.7063 4.62017 18.4943C4.11089 18.4943 3.67414 18.4943 3.23657 18.4943C3.33598 18.5963 3.43051 18.6457 3.53073 18.6733C4.81247 19.0215 5.88235 19.7098 6.70045 20.7391C7.81596 22.1417 8.75383 23.6609 9.53852 25.2716C10.1602 26.5478 10.738 27.8378 10.8586 29.2777C10.8789 29.5206 10.9449 29.7595 10.9897 30C11.1299 28.3448 11.6677 26.8264 12.4459 25.4092C13.246 23.95 14.1073 22.5166 15.0427 21.1407C15.8494 19.9544 17.0244 19.1786 18.4031 18.7316C18.5775 18.6749 18.7576 18.6385 18.9352 18.5923C18.9287 18.5453 18.923 18.4984 18.9165 18.4514C18.4097 18.4741 17.9028 18.4959 17.3862 18.5194C18.4447 16.7735 19.5227 14.9951 20.6016 13.2168C19.7737 13.8638 18.9727 14.5117 18.2206 15.2122C17.7407 15.66 17.3699 16.2236 16.8859 16.6674C16.1485 17.3428 15.3524 17.9558 14.5864 18.602C14.1309 18.9867 13.6869 19.3835 13.1466 19.854C13.4465 19.2507 13.6828 18.7413 13.9492 18.2473C14.5514 17.1363 14.967 15.9207 16.1167 15.1595Z" fill="current"/>
</svg>

<svg xmlns="http://www.w3.org/2000/svg" width="1em" height="1em" fill="current" viewBox="0 0 22 30"><path d="M16.117 15.16c.94-.623 1.79-1.384 2.679-2.082.514-.403 1.048-.783 1.542-1.209.708-.609.985-1.473 1.249-2.317.375-1.203.509-2.437.343-3.704-.145-1.105-.179-2.227-.35-3.327-.128-.823-.395-1.624-.622-2.521-.123.91-.193 1.718-.348 2.509-.299 1.534-.901 2.923-2.06 4.037-.424.408-.79.874-1.174 1.321-.35.406-.687.823-1.029 1.234l-.066-.032.454-1.332c-1.805 1.742-3.794 3.204-5.753 4.75L5.28 7.74l.44 1.399c-.093-.079-.158-.121-.207-.175-.604-.68-1.214-1.353-1.806-2.043-.427-.497-.856-.996-1.236-1.527-.623-.87-.844-1.901-1.053-2.92C1.259 1.701 1.188.913 1.07.07.904.67.697 1.22.604 1.79.406 3.006.266 4.231.103 5.453-.064 6.696-.043 7.936.276 9.15c.257.974.553 1.948 1.346 2.66.237.211.502.395.753.59 1.104.859 2.216 1.707 3.308 2.58.516.414 1.113.798 1.463 1.333.556.846.94 1.805 1.389 2.72.113.231.194.478.29.718-.399-.287-.72-.613-1.07-.907-.883-.744-1.8-1.45-2.66-2.219-.461-.411-.815-.94-1.253-1.38-.367-.368-.782-.688-1.182-1.022-.404-.339-.817-.668-1.27-1.04l3.23 5.311H3.237c.099.102.194.152.294.18 1.281.348 2.351 1.036 3.17 2.065a24.5 24.5 0 0 1 2.838 4.533c.621 1.276 1.199 2.566 1.32 4.006.02.243.086.482.13.722.14-1.655.679-3.174 1.457-4.59.8-1.46 1.661-2.893 2.597-4.27.806-1.186 1.981-1.961 3.36-2.408.175-.057.355-.093.532-.14l-.018-.14-1.53.067 3.215-5.302c-.828.647-1.63 1.295-2.381 1.995-.48.448-.851 1.012-1.335 1.455-.738.676-1.534 1.289-2.3 1.935-.455.385-.9.782-1.44 1.252.3-.603.537-1.113.803-1.607.602-1.11 1.018-2.326 2.168-3.088"/></svg>
